polaris-icons/icons/new-icons/TransactionFeeRupeeMajor.svg

<svg width="20" height="20" viewBox="0 0 20 20" fill="none" xmlns="http://www.w3.org/2000/svg">
<path fill-rule="evenodd" clip-rule="evenodd" d="M6.25 3C5.00736 3 4 4.00736 4 5.25C4 6.49264 5.00736 7.5 6.25 7.5C6.60921 7.5 6.94876 7.41582 7.25 7.26612V11.25C7.25 12.7688 8.48122 14 10 14H10.25C10.6642 14 11 13.6642 11 13.25C11 12.8358 10.6642 12.5 10.25 12.5H10C9.30964 12.5 8.75 11.9404 8.75 11.25V6H11.628C11.9369 6.87389 12.7703 7.5 13.75 7.5C14.9926 7.5 16 6.49264 16 5.25C16 4.00736 14.9926 3 13.75 3C12.7703 3 11.9369 3.62611 11.628 4.5H8.37197C8.06309 3.62611 7.22966 3 6.25 3ZM5.5 5.25C5.5 4.83579 5.83579 4.5 6.25 4.5C6.66421 4.5 7 4.83579 7 5.25C7 5.66421 6.66421 6 6.25 6C5.83579 6 5.5 5.66421 5.5 5.25ZM13 5.25C13 4.83579 13.3358 4.5 13.75 4.5C14.1642 4.5 14.5 4.83579 14.5 5.25C14.5 5.66421 14.1642 6 13.75 6C13.3358 6 13 5.66421 13 5.25Z" fill="#4A4A4A"/>
<path d="M16.1431 15.6112C16.4958 15.8282 16.6058 16.2902 16.3887 16.643C16.1717 16.9957 15.7097 17.1057 15.3569 16.8886L12.5428 15.1569C11.7743 14.684 12.1095 13.4999 13.0118 13.4999C13.4754 13.4999 13.8644 13.1806 13.9711 12.75H12.75C12.3358 12.75 12 12.4142 12 12C12 11.5858 12.3358 11.25 12.75 11.25H14V10.4999H12.75C12.3358 10.4999 12 10.1641 12 9.74989C12 9.33568 12.3358 8.9999 12.75 8.9999H16.25C16.6642 8.9999 17 9.33568 17 9.74989C17 10.1641 16.6642 10.4999 16.25 10.4999H15.5V11.25H16.25C16.6642 11.25 17 11.5858 17 12C17 12.4142 16.6642 12.75 16.25 12.75H15.4887C15.4176 13.4983 15.0151 14.15 14.4296 14.5567L16.1431 15.6112Z" fill="#4A4A4A"/>
</svg>

<svg viewBox="0 0 20 20" xmlns="http://www.w3.org/2000/svg"><path fill-rule="evenodd" d="M6.25 3a2.25 2.25 0 1 0 1 4.266v3.984a2.75 2.75 0 0 0 2.75 2.75h.25a.75.75 0 0 0 0-1.5h-.25c-.69 0-1.25-.56-1.25-1.25v-5.25h2.878a2.251 2.251 0 1 0 0-1.5h-3.256a2.25 2.25 0 0 0-2.122-1.5Zm-.75 2.25a.75.75 0 1 1 1.5 0 .75.75 0 0 1-1.5 0Zm7.5 0a.75.75 0 1 1 1.5 0 .75.75 0 0 1-1.5 0Z" fill="#5C5F62"/><path d="M16.143 15.611a.75.75 0 0 1-.786 1.278l-2.814-1.732c-.769-.473-.433-1.657.469-1.657.463 0 .852-.32.96-.75h-1.222a.75.75 0 0 1 0-1.5h1.25v-.75h-1.25a.75.75 0 0 1 0-1.5h3.5a.75.75 0 0 1 0 1.5h-.75v.75h.75a.75.75 0 0 1 0 1.5h-.761a2.487 2.487 0 0 1-1.06 1.807l1.714 1.054Z" fill="#5C5F62"/></svg>
